;FLAVOR:UltiGCode
;TIME:2778
;MATERIAL:8158
;MATERIAL2:0

;Layer count: 145
;LAYER:0
M107
G0 F9000 X74.079 Y88.395 Z0.300
;TYPE:SKIRT
G1 F1200 X93.353 Y69.121 E3.27091
G1 X160.739 Y136.507 E14.70669
G1 X141.465 Y155.782 E17.97768
G1 X129.834 Y155.782 E19.37340
G1 X74.079 Y100.025 E28.83551
G1 X74.079 Y88.395 E30.23111
G10
G0 F9000 X77.879 Y89.968
;TYPE:WALL-INNER
G11
G1 F1200 X93.353 Y74.494 E32.85713
G1 X155.366 Y136.507 E43.38109
G1 X139.892 Y151.982 E46.00720
G1 X131.407 Y151.982 E47.02540
G1 X77.879 Y98.452 E56.10957
G1 X77.879 Y89.968 E57.12765
G10
G0 F9000 X88.250 Y93.541
G11
G1 F1200 X88.172 Y93.987 E57.18198
G1 X88.175 Y94.456 E57.23826
G1 X88.251 Y94.883 E57.29031
G1 X88.417 Y95.325 E57.34697
G1 X88.645 Y95.710 E57.40066
G1 X88.921 Y96.040 E57.45228
G1 X89.284 Y96.340 E57.50880
G1 X89.657 Y96.555 E57.56046
G1 X90.080 Y96.709 E57.61448
G1 X90.526 Y96.787 E57.66881
G1 X90.995 Y96.784 E57.72509
G1 X91.421 Y96.708 E57.77702
G1 X91.864 Y96.544 E57.83370
G1 X92.252 Y96.314 E57.88783
G1 X92.594 Y96.021 E57.94187
G1 X92.878 Y95.675 E57.99559
G1 X93.094 Y95.304 E58.04710
G1 X93.248 Y94.880 E58.10124
G1 X93.326 Y94.433 E58.15569
G1 X93.323 Y93.964 E58.21197
G1 X93.247 Y93.539 E58.26378
G1 X93.083 Y93.097 E58.32035
G1 X92.853 Y92.708 E58.37458
G1 X92.559 Y92.365 E58.42879
G1 X92.214 Y92.081 E58.48241
G1 X91.843 Y91.866 E58.53387
G1 X91.419 Y91.712 E58.58800
G1 X90.973 Y91.633 E58.64235
G1 X90.502 Y91.636 E58.69887
G1 X90.077 Y91.713 E58.75070
G1 X89.636 Y91.877 E58.80716
G1 X89.247 Y92.107 E58.86139
G1 X88.904 Y92.399 E58.91545
G1 X88.620 Y92.745 E58.96916
G1 X88.405 Y93.117 E59.02072
G1 X88.250 Y93.541 E59.07490
G10
G0 F9000 X97.506 Y100.968
G11
G1 F1200 X97.155 Y101.389 E59.14067
G1 X96.880 Y101.862 E59.20633
G1 X96.693 Y102.377 E59.27208
G1 X96.598 Y102.916 E59.33775
G1 X96.598 Y103.465 E59.40363
G1 X96.693 Y104.004 E59.46931
G1 X96.880 Y104.519 E59.53506
G1 X97.155 Y104.992 E59.60071
G1 X97.506 Y105.413 E59.66649
G1 X97.927 Y105.764 E59.73226
G1 X98.400 Y106.039 E59.79792
G1 X98.915 Y106.226 E59.86367
G1 X99.454 Y106.321 E59.92934
G1 X100.003 Y106.321 E59.99522
G1 X100.542 Y106.226 E60.06090
G1 X101.057 Y106.039 E60.12665
G1 X101.530 Y105.764 E60.19231
G1 X101.951 Y105.413 E60.25808
G1 X102.302 Y104.992 E60.32386
G1 X102.577 Y104.519 E60.38951
G1 X102.764 Y104.004 E60.45526
G1 X102.859 Y103.465 E60.52094
G1 X102.859 Y102.916 E60.58682
G1 X102.764 Y102.377 E60.65249
G1 X102.577 Y101.862 E60.71824
G1 X102.302 Y101.389 E60.78390
G1 X101.951 Y100.968 E60.84967
G1 X101.530 Y100.616 E60.91552
G1 X101.057 Y100.343 E60.98106
G1 X100.542 Y100.155 E61.04685
G1 X100.003 Y100.060 E61.11253
G1 X99.454 Y100.060 E61.17841
G1 X98.915 Y100.155 E61.24408
G1 X98.400 Y100.343 E61.30987
G1 X97.927 Y100.616 E61.37541
G1 X97.506 Y100.968 E61.44126
G10
G0 F9000 X110.977 Y114.439
G11
G1 F1200 X110.625 Y114.858 E61.50693
G1 X110.351 Y115.332 E61.57263
G1 X110.163 Y115.849 E61.63864
G1 X110.069 Y116.388 E61.70430
G1 X110.069 Y116.934 E61.76982
G1 X110.163 Y117.474 E61.83559
G1 X110.351 Y117.988 E61.90127
G1 X110.625 Y118.463 E61.96707
G1 X110.977 Y118.883 E62.03283
G1 X111.396 Y119.235 E62.09850
G1 X111.871 Y119.509 E62.16430
G1 X112.385 Y119.696 E62.22994
G1 X112.926 Y119.791 E62.29585
G1 X113.473 Y119.791 E62.36149
G1 X114.012 Y119.696 E62.42717
G1 X114.526 Y119.509 E62.49280
G1 X115.001 Y119.235 E62.55861
G1 X115.421 Y118.883 E62.62437
G1 X115.773 Y118.463 E62.69013
G1 X116.047 Y117.988 E62.75593
G1 X116.234 Y117.474 E62.82157
G1 X116.329 Y116.935 E62.88724
G1 X116.329 Y116.387 E62.95300
G1 X116.234 Y115.849 E63.01856
G1 X116.047 Y115.333 E63.08442
G1 X115.773 Y114.858 E63.15023
G1 X115.421 Y114.439 E63.21589
G1 X115.001 Y114.087 E63.28165
G1 X114.526 Y113.813 E63.34746
G1 X114.012 Y113.625 E63.41313
G1 X113.472 Y113.531 E63.47891
G1 X112.926 Y113.531 E63.54443
G1 X112.385 Y113.625 E63.61032
G1 X111.870 Y113.813 E63.67611
G1 X111.396 Y114.087 E63.74181
G1 X110.977 Y114.439 E63.80748
G10
G0 F9000 X124.447 Y127.909
G11
G1 F1200 X124.096 Y128.329 E63.87316
G1 X123.821 Y128.804 E63.93902
G1 X123.634 Y129.318 E64.00466
G1 X123.539 Y129.857 E64.07034
G1 X123.539 Y130.409 E64.13658
G1 X123.645 Y130.977 E64.20591
G1 X123.821 Y131.460 E64.26760
G1 X124.096 Y131.934 E64.33336
G1 X124.447 Y132.353 E64.39895
G1 X124.867 Y132.705 E64.46471
G1 X125.342 Y132.979 E64.53052
G1 X125.856 Y133.167 E64.59619
G1 X126.395 Y133.262 E64.66187
G1 X126.944 Y133.262 E64.72775
G1 X127.483 Y133.167 E64.79343
G1 X127.998 Y132.979 E64.85921
G1 X128.472 Y132.705 E64.92491
G1 X128.891 Y132.353 E64.99058
G1 X129.243 Y131.934 E65.05625
G1 X129.517 Y131.460 E65.12195
G1 X129.705 Y130.945 E65.18774
G1 X129.800 Y130.406 E65.25342
G1 X129.800 Y129.857 E65.31930
G1 X129.705 Y129.318 E65.38497
G1 X129.517 Y128.804 E65.45065
G1 X129.243 Y128.329 E65.51645
G1 X128.891 Y127.909 E65.58221
G1 X128.472 Y127.558 E65.64780
G1 X127.998 Y127.283 E65.71356
G1 X127.483 Y127.096 E65.77931
G1 X126.944 Y127.001 E65.84499
G1 X126.395 Y127.001 E65.91087
G1 X125.856 Y127.096 E65.97654
G1 X125.342 Y127.283 E66.04218
G1 X124.867 Y127.558 E66.10804
G1 X124.447 Y127.909 E66.17373
G10
G0 F9000 X133.804 Y137.300
G11
G1 F1200 X133.520 Y137.646 E66.22744
G1 X133.305 Y138.019 E66.27911
G1 X133.151 Y138.442 E66.33312
G1 X133.073 Y138.889 E66.38758
G1 X133.076 Y139.357 E66.44374
G1 X133.152 Y139.783 E66.49566
G1 X133.316 Y140.225 E66.55224
G1 X133.544 Y140.611 E66.60603
G1 X133.822 Y140.943 E66.65800
G1 X134.184 Y141.241 E66.71426
G1 X134.557 Y141.456 E66.76593
G1 X134.980 Y141.610 E66.81994
G1 X135.427 Y141.688 E66.87440
G1 X135.895 Y141.685 E66.93056
G1 X136.321 Y141.609 E66.98248
G1 X136.763 Y141.445 E67.03906
G1 X137.152 Y141.215 E67.09329
G1 X137.495 Y140.923 E67.14734
G1 X137.779 Y140.577 E67.20106
G1 X137.994 Y140.204 E67.25272
G1 X138.148 Y139.781 E67.30674
G1 X138.226 Y139.334 E67.36119
G1 X138.223 Y138.866 E67.41735
G1 X138.147 Y138.440 E67.46928
G1 X137.983 Y137.998 E67.52585
G1 X137.753 Y137.609 E67.58008
G1 X137.461 Y137.266 E67.63414
G1 X137.115 Y136.982 E67.68785
G1 X136.742 Y136.767 E67.73951
G1 X136.319 Y136.613 E67.79353
G1 X135.872 Y136.535 E67.84798
G1 X135.404 Y136.538 E67.90415
G1 X134.978 Y136.614 E67.95607
G1 X134.536 Y136.778 E68.01265
G1 X134.147 Y137.008 E68.06687
G1 X133.804 Y137.300 E68.12093
G0 F9000 X134.091 Y137.581
;TYPE:WALL-OUTER
G1 F1200 X133.850 Y137.875 E68.16655
G1 X133.669 Y138.188 E68.20994
G1 X133.539 Y138.546 E68.25564
G1 X133.473 Y138.922 E68.30145
G1 X133.476 Y139.320 E68.34921
G1 X133.539 Y139.678 E68.39283
G1 X133.679 Y140.052 E68.44075
G1 X133.872 Y140.380 E68.48642
G1 X134.105 Y140.658 E68.52995
G1 X134.413 Y140.911 E68.57778
G1 X134.726 Y141.092 E68.62117
G1 X135.084 Y141.222 E68.66687
G1 X135.460 Y141.288 E68.71268
G1 X135.858 Y141.285 E68.76044
G1 X136.216 Y141.222 E68.80406
G1 X136.590 Y141.082 E68.85199
G1 X136.919 Y140.888 E68.89782
G1 X137.208 Y140.642 E68.94336
G1 X137.449 Y140.348 E68.98898
G1 X137.630 Y140.035 E69.03237
G1 X137.760 Y139.677 E69.07807
G1 X137.826 Y139.301 E69.12388
G1 X137.823 Y138.903 E69.17164
G1 X137.760 Y138.545 E69.21526
G1 X137.620 Y138.171 E69.26318
G1 X137.426 Y137.842 E69.30902
G1 X137.180 Y137.553 E69.35456
G1 X136.886 Y137.312 E69.40018
G1 X136.573 Y137.131 E69.44357
G1 X136.215 Y137.001 E69.48927
G1 X135.839 Y136.935 E69.53508
G1 X135.441 Y136.938 E69.58284
G1 X135.083 Y137.001 E69.62646
G1 X134.709 Y137.141 E69.67438
G1 X134.380 Y137.335 E69.72022
G1 X134.091 Y137.581 E69.76576
G10
G0 F9000 X128.607 Y132.069
G11
G1 F1200 X128.914 Y131.703 E69.82308
G1 X129.153 Y131.290 E69.88034
G1 X129.317 Y130.841 E69.93771
G1 X129.400 Y130.371 E69.99498
G1 X129.400 Y129.892 E70.05246
G1 X129.317 Y129.422 E70.10973
G1 X129.153 Y128.973 E70.16709
G1 X128.914 Y128.559 E70.22446
G1 X128.607 Y128.193 E70.28178
G1 X128.241 Y127.887 E70.33903
G1 X127.828 Y127.647 E70.39635
G1 X127.379 Y127.484 E70.45367
G1 X126.909 Y127.401 E70.51094
G1 X126.430 Y127.401 E70.56842
G1 X125.960 Y127.484 E70.62570
G1 X125.511 Y127.647 E70.68302
G1 X125.097 Y127.887 E70.74044
G1 X124.731 Y128.193 E70.79769
G1 X124.425 Y128.559 E70.85494
G1 X124.185 Y128.973 E70.91236
G1 X124.022 Y129.422 E70.96968
G1 X123.939 Y129.892 E71.02695
G1 X123.939 Y130.372 E71.08455
G1 X124.032 Y130.871 E71.14547
G1 X124.185 Y131.290 E71.19899
G1 X124.425 Y131.703 E71.25631
G1 X124.731 Y132.069 E71.31356
G1 X125.097 Y132.376 E71.37089
G1 X125.511 Y132.615 E71.42825
G1 X125.960 Y132.779 E71.48561
G1 X126.430 Y132.862 E71.54288
G1 X126.909 Y132.862 E71.60036
G1 X127.379 Y132.779 E71.65764
G1 X127.828 Y132.615 E71.71500
G1 X128.241 Y132.376 E71.77226
G1 X128.607 Y132.069 E71.82958
G10
G0 F9000 X115.137 Y118.599
G11
G1 F1200 X115.444 Y118.233 E71.88691
G1 X115.683 Y117.819 E71.94427
G1 X115.846 Y117.370 E72.00159
G1 X115.929 Y116.900 E72.05887
G1 X115.929 Y116.422 E72.11623
G1 X115.846 Y115.952 E72.17350
G1 X115.683 Y115.502 E72.23093
G1 X115.444 Y115.089 E72.28819
G1 X115.137 Y114.723 E72.34552
G1 X114.771 Y114.416 E72.40284
G1 X114.357 Y114.177 E72.46021
G1 X113.908 Y114.013 E72.51757
G1 X113.437 Y113.931 E72.57494
G1 X112.961 Y113.931 E72.63206
G1 X112.489 Y114.013 E72.68955
G1 X112.040 Y114.177 E72.74691
G1 X111.627 Y114.416 E72.80417
G1 X111.261 Y114.723 E72.86149
G1 X110.954 Y115.089 E72.91882
G1 X110.715 Y115.502 E72.97608
G1 X110.551 Y115.952 E73.03355
G1 X110.469 Y116.423 E73.09092
G1 X110.469 Y116.899 E73.14804
G1 X110.551 Y117.370 E73.20541
G1 X110.715 Y117.819 E73.26278
G1 X110.954 Y118.233 E73.32014
G1 X111.261 Y118.599 E73.37746
G1 X111.627 Y118.906 E73.43479
G1 X112.040 Y119.145 E73.49205
G1 X112.489 Y119.308 E73.54937
G1 X112.961 Y119.391 E73.60688
G1 X113.438 Y119.391 E73.66412
G1 X113.908 Y119.308 E73.72139
G1 X114.357 Y119.145 E73.77871
G1 X114.771 Y118.906 E73.83608
G1 X115.137 Y118.599 E73.89340
G10
G0 F9000 X101.667 Y105.129
G11
G1 F1200 X101.973 Y104.762 E73.95074
G1 X102.213 Y104.349 E74.00806
G1 X102.376 Y103.900 E74.06538
G1 X102.459 Y103.430 E74.12266
G1 X102.459 Y102.951 E74.18014
G1 X102.376 Y102.481 E74.23741
G1 X102.213 Y102.032 E74.29473
G1 X101.973 Y101.619 E74.35205
G1 X101.667 Y101.252 E74.40939
G1 X101.300 Y100.945 E74.46681
G1 X100.887 Y100.707 E74.52401
G1 X100.438 Y100.543 E74.58137
G1 X99.968 Y100.460 E74.63864
G1 X99.489 Y100.460 E74.69612
G1 X99.019 Y100.543 E74.75339
G1 X98.570 Y100.707 E74.81075
G1 X98.157 Y100.945 E74.86796
G1 X97.790 Y101.252 E74.92537
G1 X97.484 Y101.619 E74.98271
G1 X97.244 Y102.032 E75.04003
G1 X97.081 Y102.481 E75.09735
G1 X96.998 Y102.951 E75.15463
G1 X96.998 Y103.430 E75.21211
G1 X97.081 Y103.900 E75.26938
G1 X97.244 Y104.349 E75.32670
G1 X97.484 Y104.762 E75.38402
G1 X97.790 Y105.129 E75.44136
G1 X98.157 Y105.435 E75.49870
G1 X98.570 Y105.675 E75.55602
G1 X99.019 Y105.838 E75.61334
G1 X99.489 Y105.921 E75.67061
G1 X99.968 Y105.921 E75.72809
G1 X100.438 Y105.838 E75.78537
G1 X100.887 Y105.675 E75.84269
G1 X101.300 Y105.435 E75.90001
G1 X101.667 Y105.129 E75.95735
G10
G0 F9000 X92.307 Y95.740
G11
G1 F1200 X92.549 Y95.446 E76.00304
G1 X92.730 Y95.134 E76.04633
G1 X92.860 Y94.776 E76.09203
G1 X92.926 Y94.400 E76.13784
G1 X92.923 Y94.001 E76.18572
G1 X92.860 Y93.644 E76.22922
G1 X92.720 Y93.270 E76.27714
G1 X92.526 Y92.941 E76.32298
G1 X92.278 Y92.652 E76.36868
G1 X91.985 Y92.411 E76.41420
G1 X91.673 Y92.230 E76.45749
G1 X91.315 Y92.100 E76.50319
G1 X90.939 Y92.033 E76.54902
G1 X90.539 Y92.036 E76.59702
G1 X90.183 Y92.100 E76.64043
G1 X89.809 Y92.240 E76.68835
G1 X89.480 Y92.434 E76.73418
G1 X89.191 Y92.680 E76.77972
G1 X88.950 Y92.974 E76.82534
G1 X88.769 Y93.287 E76.86873
G1 X88.638 Y93.645 E76.91448
G1 X88.572 Y94.020 E76.96017
G1 X88.575 Y94.419 E77.00805
G1 X88.638 Y94.777 E77.05167
G1 X88.779 Y95.152 E77.09975
G1 X88.972 Y95.478 E77.14521
G1 X89.204 Y95.755 E77.18857
G1 X89.513 Y96.010 E77.23664
G1 X89.826 Y96.191 E77.28003
G1 X90.184 Y96.321 E77.32573
G1 X90.559 Y96.387 E77.37143
G1 X90.958 Y96.384 E77.41931
G1 X91.316 Y96.321 E77.46293
G1 X91.691 Y96.181 E77.51096
G1 X92.018 Y95.987 E77.55659
G1 X92.307 Y95.740 E77.60221
G10
G0 F9000 X77.479 Y98.618
G11
G1 F1200 X77.479 Y89.802 E78.66013
G1 X93.353 Y73.928 E81.35403
G1 X155.932 Y136.507 E91.97404
G1 X140.058 Y152.382 E94.66804
G1 X131.241 Y152.382 E95.72608
G1 X77.479 Y98.618 E104.84996
G0 F9000 X78.018 Y98.100
;TYPE:SKIN
G1 F1200 X131.759 Y151.841 E113.97011
G0 F9000 X132.325 Y151.841
G1 F1200 X78.018 Y97.534 E123.18631
G0 F9000 X78.018 Y96.969
G1 F1200 X132.890 Y151.841 E132.49840
G0 F9000 X133.456 Y151.841
G1 F1200 X78.018 Y96.403 E141.90654
G0 F9000 X78.018 Y95.837
G1 F1200 X134.022 Y151.841 E151.41073
G0 F9000 X134.587 Y151.841
G1 F1200 X78.018 Y95.272 E161.01081
G0 F9000 X78.018 Y94.706
G1 F1200 X135.153 Y151.841 E170.70694
G0 F9000 X135.719 Y151.841
G1 F1200 X78.018 Y94.140 E180.49913
G0 F9000 X78.018 Y93.574
G1 F1200 X136.284 Y151.841 E190.38728
G0 F9000 X136.850 Y151.841
G1 F1200 X78.018 Y93.009 E200.37140
G0 F9000 X78.018 Y92.443
G1 F1200 X137.416 Y151.841 E210.45158
G0 F9000 X137.981 Y151.841
G1 F1200 X78.018 Y91.877 E220.62772
G0 F9000 X78.018 Y91.312
G1 F1200 X138.547 Y151.841 E230.89983
G0 F9000 X139.113 Y151.841
G1 F1200 X78.018 Y90.746 E241.26800
G0 F9000 X78.018 Y90.180
G1 F1200 X139.679 Y151.841 E251.73222
G10
G0 F9000 X142.302 Y149.373
G11
G1 F1200 X134.519 Y141.591 E253.05295
G0 F9000 X135.302 Y141.808
G1 F1200 X142.585 Y149.090 E254.28883
G0 F9000 X142.868 Y148.807
G1 F1200 X135.885 Y141.825 E255.47380
G0 F9000 X136.367 Y141.741
G1 F1200 X143.150 Y148.524 E256.62491
G0 F9000 X143.433 Y148.242
G1 F1200 X136.779 Y141.587 E257.75422
G0 F9000 X137.140 Y141.383
G1 F1200 X143.716 Y147.959 E258.87020
G0 F9000 X143.999 Y147.676
G1 F1200 X137.459 Y141.136 E259.98008
G0 F9000 X137.736 Y140.847
G1 F1200 X144.282 Y147.393 E261.09097
G0 F9000 X144.565 Y147.110
G1 F1200 X137.973 Y140.519 E262.20959
G0 F9000 X138.164 Y140.144
G1 F1200 X144.847 Y146.827 E263.34373
G0 F9000 X145.130 Y146.545
G1 F1200 X138.300 Y139.715 E264.50282
G0 F9000 X138.364 Y139.213
G1 F1200 X145.413 Y146.262 E265.69907
G0 F9000 X145.696 Y145.979
G1 F1200 X138.317 Y138.600 E266.95133
G0 F9000 X137.946 Y137.663
G1 F1200 X145.979 Y145.696 E268.31458
G0 F9000 X146.262 Y145.413
G1 F1200 X129.672 Y128.824 E271.12991
G0 F9000 X129.898 Y129.615
G1 F1200 X137.088 Y136.806 E272.35018
G0 F9000 X136.159 Y136.441
G1 F1200 X129.939 Y130.222 E273.40566
G0 F9000 X129.884 Y130.732
G1 F1200 X135.547 Y136.395 E274.36670
G0 F9000 X135.043 Y136.458
G1 F1200 X129.767 Y131.181 E275.26216
G0 F9000 X129.605 Y131.585
G1 F1200 X134.617 Y136.597 E276.11272
G0 F9000 X134.242 Y136.788
G1 F1200 X129.398 Y131.944 E276.93477
G0 F9000 X129.149 Y132.260
G1 F1200 X133.911 Y137.023 E277.74300
G0 F9000 X133.622 Y137.299
G1 F1200 X128.873 Y132.549 E278.54901
G0 F9000 X128.565 Y132.808
G1 F1200 X133.375 Y137.617 E279.36521
G0 F9000 X133.170 Y137.979
G1 F1200 X128.209 Y133.018 E280.20712
G0 F9000 X127.819 Y133.193
G1 F1200 X133.018 Y138.392 E281.08942
G0 F9000 X132.933 Y138.872
G1 F1200 X127.386 Y133.326 E282.03069
G0 F9000 X126.895 Y133.401
G1 F1200 X132.952 Y139.457 E283.05852
G0 F9000 X133.175 Y140.246
G1 F1200 X126.319 Y133.390 E284.22202
G0 F9000 X125.576 Y133.213
G1 F1200 X142.019 Y149.656 E287.01249
G0 F9000 X141.736 Y149.939
G1 F1200 X79.920 Y88.123 E297.50301
G0 F9000 X79.637 Y88.406
G1 F1200 X141.453 Y150.222 E307.99353
G0 F9000 X141.171 Y150.504
G1 F1200 X79.355 Y88.688 E318.48406
G0 F9000 X79.072 Y88.971
G1 F1200 X140.888 Y150.787 E328.97458
G0 F9000 X140.605 Y151.070
G1 F1200 X78.789 Y89.254 E339.46510
G0 F9000 X78.506 Y89.537
G1 F1200 X140.322 Y151.353 E349.95563
