;FLAVOR:UltiGCode
;TIME:10008
;MATERIAL:9245
;MATERIAL2:0

;Layer count: 176
;LAYER:0
M107
G0 F9000 X35.146 Y93.510 Z0.300
;TYPE:SKIRT
G1 F1200 X35.878 Y93.334 E0.09034
G1 X41.857 Y93.325 E0.80782
G1 X42.685 Y92.447 E0.95265
G1 X44.689 Y90.739 E1.26862
G1 X46.822 Y89.271 E1.57934
G1 X47.072 Y89.102 E1.61555
G1 X49.244 Y87.946 E1.91081
G1 X49.505 Y87.807 E1.94629
G1 X51.950 Y86.831 E2.26221
G1 X54.437 Y86.124 E2.57247
G1 X54.729 Y86.043 E2.60883
G1 X57.163 Y85.642 E2.90485
G1 X57.446 Y85.594 E2.93930
G1 X59.918 Y85.462 E3.23636
G1 X60.201 Y85.445 E3.27038
G1 X62.679 Y85.578 E3.56817
G1 X62.972 Y85.595 E3.60339
G1 X65.564 Y86.021 E3.91860
G1 X68.058 Y86.702 E4.22884
G1 X68.348 Y86.783 E4.26497
G1 X70.793 Y87.759 E4.58088
G1 X73.085 Y88.963 E4.89156
G1 X73.350 Y89.104 E4.92758
G1 X75.383 Y90.486 E5.22257
G1 X75.629 Y90.653 E5.25825
G1 X77.635 Y92.363 E5.57456
G1 X78.551 Y93.324 E5.73388
G1 X83.732 Y93.324 E6.35560
G1 X84.569 Y93.340 E6.45606
G1 X85.267 Y93.509 E6.54224
G1 X85.843 Y93.748 E6.61707
G1 X86.375 Y94.074 E6.69194
G1 X86.941 Y94.559 E6.78139
G1 X87.531 Y95.367 E6.90144
G1 X87.816 Y96.063 E6.99170
G1 X87.988 Y96.777 E7.07983
G1 X88.000 Y99.043 E7.35175
G1 X87.972 Y99.639 E7.42335
G1 X87.816 Y100.286 E7.50321
G1 X87.579 Y100.865 E7.57829
G1 X87.246 Y101.404 E7.65432
G1 X86.845 Y101.871 E7.72818
G1 X86.375 Y102.275 E7.80256
G1 X85.843 Y102.601 E7.87743
G1 X85.267 Y102.840 E7.95226
G1 X84.541 Y103.015 E8.04188
G1 X84.391 Y103.015 E8.05988
G1 X84.409 Y103.062 E8.06592
G1 X85.011 Y105.330 E8.34750
G1 X85.088 Y105.610 E8.38235
G1 X85.456 Y107.950 E8.66660
G1 X85.501 Y108.230 E8.70063
G1 X85.624 Y110.593 E8.98457
G1 X85.638 Y110.874 E9.01834
G1 X85.516 Y113.236 E9.30215
G1 X85.501 Y113.517 E9.33592
G1 X85.133 Y115.855 E9.61994
G1 X85.089 Y116.131 E9.65347
G1 X84.480 Y118.423 E9.93806
G1 X84.406 Y118.695 E9.97188
G1 X84.389 Y118.738 E9.97743
G1 X84.584 Y118.744 E10.00084
G1 X85.267 Y118.909 E10.08516
G1 X85.843 Y119.148 E10.16000
G1 X86.375 Y119.474 E10.23487
G1 X86.941 Y119.959 E10.32431
G1 X87.531 Y120.767 E10.44437
G1 X87.816 Y121.463 E10.53462
G1 X87.988 Y122.177 E10.62275
G1 X88.000 Y124.444 E10.89480
G1 X87.972 Y125.040 E10.96640
G1 X87.816 Y125.686 E11.04614
G1 X87.579 Y126.265 E11.12122
G1 X87.246 Y126.804 E11.19725
G1 X86.845 Y127.271 E11.27111
G1 X86.375 Y127.675 E11.34548
G1 X85.843 Y128.001 E11.42036
G1 X85.267 Y128.240 E11.49519
G1 X84.540 Y128.415 E11.58492
G1 X78.561 Y128.424 E12.30240
G1 X77.933 Y129.090 E12.41225
G1 X77.733 Y129.302 E12.44723
G1 X75.729 Y131.010 E12.76320
G1 X73.596 Y132.478 E13.07392
G1 X73.346 Y132.647 E13.11013
G1 X71.174 Y133.803 E13.40539
G1 X70.913 Y133.942 E13.44087
G1 X68.468 Y134.918 E13.75679
G1 X65.981 Y135.625 E14.06705
G1 X65.689 Y135.706 E14.10341
G1 X63.255 Y136.107 E14.39943
G1 X62.973 Y136.154 E14.43374
G1 X60.501 Y136.288 E14.73081
G1 X60.216 Y136.305 E14.76507
G1 X57.739 Y136.171 E15.06275
G1 X57.446 Y136.154 E15.09797
G1 X54.854 Y135.728 E15.41318
G1 X52.360 Y135.047 E15.72342
G1 X52.070 Y134.966 E15.75955
G1 X49.625 Y133.990 E16.07546
G1 X47.333 Y132.786 E16.38614
G1 X47.068 Y132.645 E16.42216
G1 X45.035 Y131.263 E16.71715
G1 X44.789 Y131.096 E16.75283
G1 X42.783 Y129.386 E17.06914
G1 X41.868 Y128.426 E17.22829
G1 X36.684 Y128.426 E17.85037
G1 X35.846 Y128.408 E17.95095
G1 X35.146 Y128.239 E18.03736
G1 X34.578 Y128.001 E18.11127
G1 X34.048 Y127.679 E18.18568
G1 X33.573 Y127.271 E18.26082
G1 X33.165 Y126.796 E18.33597
G1 X32.843 Y126.266 E18.41038
G1 X32.605 Y125.698 E18.48428
G1 X32.430 Y124.972 E18.57390
G1 X32.419 Y122.711 E18.84522
G1 X32.445 Y122.117 E18.91657
G1 X32.605 Y121.451 E18.99877
G1 X32.843 Y120.883 E19.07267
G1 X33.165 Y120.353 E19.14708
G1 X33.573 Y119.878 E19.22223
G1 X34.048 Y119.470 E19.29737
G1 X34.578 Y119.148 E19.37178
G1 X35.146 Y118.910 E19.44569
G1 X35.877 Y118.734 E19.53591
G1 X36.027 Y118.734 E19.55391
G1 X36.009 Y118.687 E19.55995
G1 X35.401 Y116.398 E19.84416
G1 X35.330 Y116.139 E19.87638
G1 X34.961 Y113.794 E20.16125
G1 X34.917 Y113.519 E20.19466
G1 X34.794 Y111.155 E20.47873
G1 X34.780 Y110.876 E20.51225
G1 X34.902 Y108.513 E20.79619
G1 X34.917 Y108.232 E20.82996
G1 X35.285 Y105.894 E21.11397
G1 X35.329 Y105.618 E21.14751
G1 X35.938 Y103.326 E21.43209
G1 X36.012 Y103.054 E21.46592
G1 X36.029 Y103.011 E21.47147
G1 X35.834 Y103.005 E21.49488
G1 X35.146 Y102.839 E21.57981
G1 X34.578 Y102.601 E21.65371
G1 X34.048 Y102.279 E21.72813
G1 X33.573 Y101.871 E21.80327
G1 X33.165 Y101.396 E21.87841
G1 X32.843 Y100.866 E21.95283
G1 X32.605 Y100.298 E22.02673
G1 X32.430 Y99.572 E22.11634
G1 X32.419 Y97.311 E22.38767
G1 X32.445 Y96.717 E22.45901
G1 X32.605 Y96.051 E22.54121
G1 X32.843 Y95.483 E22.61511
G1 X33.165 Y94.953 E22.68953
G1 X33.573 Y94.478 E22.76467
G1 X34.048 Y94.070 E22.83981
G1 X34.578 Y93.748 E22.91423
G1 X35.146 Y93.510 E22.98813
G10
G0 F9000 X36.309 Y97.143
;TYPE:WALL-INNER
G11
G1 F1200 X36.333 Y97.133 E22.99125
G1 X43.498 Y97.124 E23.85105
G1 X45.311 Y95.202 E24.16811
G1 X47.008 Y93.755 E24.43573
G1 X48.962 Y92.411 E24.72032
G1 X51.114 Y91.256 E25.01340
G1 X53.176 Y90.433 E25.27982
G1 X55.465 Y89.782 E25.56540
G1 X55.549 Y89.759 E25.57585
G1 X57.781 Y89.392 E25.84728
G1 X57.871 Y89.377 E25.85823
G1 X60.124 Y89.256 E26.12898
G1 X60.212 Y89.251 E26.13956
G1 X62.464 Y89.372 E26.41019
G1 X62.553 Y89.377 E26.42089
G1 X64.750 Y89.738 E26.68806
G1 X67.050 Y90.366 E26.97416
G1 X67.134 Y90.389 E26.98462
G1 X69.199 Y91.214 E27.25146
G1 X71.309 Y92.322 E27.53745
G1 X71.381 Y92.360 E27.54722
G1 X73.252 Y93.633 E27.81878
G1 X73.324 Y93.681 E27.82916
G1 X75.023 Y95.130 E28.09712
G1 X76.662 Y96.848 E28.38205
G1 X76.921 Y97.124 E28.42747
G1 X83.688 Y97.124 E29.23951
G1 X84.081 Y97.132 E29.28668
G1 X84.134 Y97.158 E29.29376
G1 X84.189 Y97.234 E29.30502
G1 X84.200 Y98.968 E29.51310
G1 X84.189 Y99.115 E29.53079
G1 X84.171 Y99.153 E29.53584
G1 X84.129 Y99.195 E29.54297
G1 X84.086 Y99.216 E29.54871
G1 X79.716 Y99.226 E30.07311
G1 X78.517 Y99.226 E30.21699
G1 X79.949 Y102.058 E30.59780
G1 X79.987 Y102.133 E30.60789
G1 X80.789 Y104.236 E30.87798
G1 X81.345 Y106.328 E31.13774
G1 X81.703 Y108.547 E31.40746
G1 X81.717 Y108.635 E31.41815
G1 X81.833 Y110.875 E31.68731
G1 X81.717 Y113.116 E31.95659
G1 X81.379 Y115.260 E32.21705
G1 X81.365 Y115.345 E32.22739
G1 X80.811 Y117.433 E32.48662
G1 X80.789 Y117.512 E32.49646
G1 X80.026 Y119.515 E32.75367
G1 X79.010 Y121.548 E33.02640
G1 X78.514 Y122.523 E33.15766
G1 X83.797 Y122.523 E33.79162
G1 X84.086 Y122.533 E33.82633
G1 X84.134 Y122.558 E33.83282
G1 X84.189 Y122.634 E33.84408
G1 X84.200 Y124.369 E34.05228
G1 X84.189 Y124.515 E34.06985
G1 X84.171 Y124.553 E34.07490
G1 X84.129 Y124.595 E34.08202
G1 X84.086 Y124.616 E34.08777
G1 X76.921 Y124.626 E34.94757
G1 X75.112 Y126.543 E35.26386
G1 X73.410 Y127.994 E35.53225
G1 X71.456 Y129.338 E35.81684
G1 X69.304 Y130.493 E36.10992
G1 X67.242 Y131.316 E36.37635
G1 X64.953 Y131.967 E36.66192
G1 X64.869 Y131.990 E36.67237
G1 X62.637 Y132.357 E36.94381
G1 X62.547 Y132.372 E36.95475
G1 X60.294 Y132.494 E37.22551
G1 X60.206 Y132.499 E37.23609
G1 X57.954 Y132.377 E37.50672
G1 X57.865 Y132.372 E37.51742
G1 X55.668 Y132.011 E37.78460
G1 X53.368 Y131.383 E38.07070
G1 X53.284 Y131.360 E38.08115
G1 X51.219 Y130.535 E38.34799
G1 X49.109 Y129.427 E38.63398
G1 X49.037 Y129.389 E38.64375
G1 X47.166 Y128.116 E38.91531
G1 X47.094 Y128.068 E38.92570
G1 X45.395 Y126.619 E39.19365
G1 X43.757 Y124.902 E39.47841
G1 X43.498 Y124.626 E39.52383
G1 X36.732 Y124.626 E40.33575
G1 X36.336 Y124.617 E40.38328
G1 X36.268 Y124.576 E40.39281
G1 X36.228 Y124.510 E40.40207
G1 X36.219 Y122.770 E40.61088
G1 X36.227 Y122.640 E40.62651
G1 X36.269 Y122.571 E40.63620
G1 X36.309 Y122.543 E40.64206
G1 X36.333 Y122.533 E40.64518
G1 X40.702 Y122.523 E41.16946
G1 X41.901 Y122.523 E41.31334
G1 X40.469 Y119.691 E41.69416
G1 X40.431 Y119.616 E41.70424
G1 X39.629 Y117.513 E41.97433
G1 X39.073 Y115.421 E42.23409
G1 X38.715 Y113.202 E42.50381
G1 X38.701 Y113.114 E42.51450
G1 X38.585 Y110.875 E42.78354
G1 X38.701 Y108.633 E43.05294
G1 X39.039 Y106.489 E43.31340
G1 X39.053 Y106.404 E43.32374
G1 X39.607 Y104.316 E43.58297
G1 X39.629 Y104.237 E43.59281
G1 X40.392 Y102.234 E43.85002
G1 X41.408 Y100.201 E44.12275
G1 X41.904 Y99.226 E44.25402
G1 X36.622 Y99.226 E44.88786
G1 X36.335 Y99.217 E44.92231
G1 X36.268 Y99.176 E44.93174
G1 X36.228 Y99.110 E44.94100
G1 X36.219 Y97.370 E45.14980
G1 X36.227 Y97.240 E45.16543
G1 X36.269 Y97.171 E45.17513
G1 X36.309 Y97.143 E45.18098
G0 F9000 X41.748 Y99.322
G0 X51.096 Y106.091
G1 F1200 X50.447 Y107.615 E45.37976
G1 X50.050 Y109.223 E45.57851
G1 X49.917 Y110.875 E45.77739
G1 X50.050 Y112.526 E45.97615
G1 X50.447 Y114.134 E46.17491
G1 X51.096 Y115.658 E46.37368
G1 X51.981 Y117.058 E46.57243
G1 X53.079 Y118.297 E46.77109
G1 X54.362 Y119.344 E46.96981
G1 X55.797 Y120.173 E47.16868
G1 X57.346 Y120.760 E47.36746
G1 X58.968 Y121.092 E47.56614
G1 X60.623 Y121.158 E47.76489
G1 X62.267 Y120.959 E47.96361
G1 X63.859 Y120.498 E48.16250
G1 X65.355 Y119.787 E48.36127
G1 X66.719 Y118.846 E48.56012
G1 X67.913 Y117.699 E48.75880
G1 X68.908 Y116.376 E48.95745
G1 X69.678 Y114.909 E49.15626
G1 X70.202 Y113.337 E49.35511
G1 X70.468 Y111.702 E49.55389
G1 X70.468 Y110.047 E49.75249
G1 X70.202 Y108.412 E49.95127
G1 X69.678 Y106.840 E50.15011
G1 X68.908 Y105.373 E50.34893
G1 X67.913 Y104.050 E50.54757
G1 X66.719 Y102.902 E50.74634
G1 X65.355 Y101.962 E50.94512
G1 X63.859 Y101.251 E51.14389
G1 X62.267 Y100.790 E51.34277
G1 X60.623 Y100.591 E51.54149
G1 X58.968 Y100.657 E51.74025
G1 X57.346 Y100.989 E51.93893
G1 X55.797 Y101.576 E52.13771
G1 X54.362 Y102.405 E52.33658
G1 X53.079 Y103.452 E52.53529
G1 X51.981 Y104.691 E52.73396
G1 X51.096 Y106.091 E52.93271
G0 F9000 X51.451 Y106.278
;TYPE:WALL-OUTER
G1 F1200 X50.828 Y107.742 E53.12363
G1 X50.446 Y109.288 E53.31473
G1 X50.318 Y110.875 E53.50579
G1 X50.446 Y112.461 E53.69673
G1 X50.828 Y114.007 E53.88783
G1 X51.451 Y115.471 E54.07876
G1 X52.302 Y116.817 E54.26985
G1 X53.357 Y118.008 E54.46078
G1 X54.590 Y119.014 E54.65174
G1 X55.969 Y119.810 E54.84281
G1 X57.457 Y120.375 E55.03381
G1 X59.017 Y120.693 E55.22486
G1 X60.607 Y120.757 E55.41581
G1 X62.187 Y120.566 E55.60679
G1 X63.716 Y120.123 E55.79782
G1 X65.154 Y119.440 E55.98885
G1 X66.465 Y118.535 E56.18002
G1 X67.612 Y117.433 E56.37089
G1 X68.569 Y116.161 E56.56190
G1 X69.309 Y114.752 E56.75288
G1 X69.813 Y113.241 E56.94403
G1 X70.068 Y111.670 E57.13501
G1 X70.068 Y110.079 E57.32593
G1 X69.813 Y108.508 E57.51692
G1 X69.309 Y106.997 E57.70806
G1 X68.569 Y105.588 E57.89904
G1 X67.612 Y104.316 E58.09006
G1 X66.465 Y103.213 E58.28101
G1 X65.154 Y102.309 E58.47211
G1 X63.716 Y101.626 E58.66314
G1 X62.187 Y101.183 E58.85417
G1 X60.607 Y100.992 E59.04515
G1 X59.017 Y101.056 E59.23610
G1 X57.457 Y101.374 E59.42715
G1 X55.969 Y101.939 E59.61815
G1 X54.590 Y102.735 E59.80922
G1 X53.357 Y103.741 E60.00018
G1 X52.302 Y104.932 E60.19111
G1 X51.451 Y106.278 E60.38220
G0 F9000 X51.199 Y106.119
G0 X41.315 Y100.160
G0 X41.051 Y100.019
G1 F1200 X41.251 Y99.626 E60.43512
G1 X36.611 Y99.626 E60.99192
G1 X36.285 Y99.617 E61.03106
G1 X36.212 Y99.599 E61.04008
G1 X36.050 Y99.517 E61.06187
G1 X35.984 Y99.460 E61.07233
G1 X35.927 Y99.394 E61.08280
G1 X35.845 Y99.232 E61.10458
G1 X35.828 Y99.160 E61.11346
G1 X35.819 Y97.382 E61.32682
G1 X35.827 Y97.191 E61.34976
G1 X35.845 Y97.117 E61.35890
G1 X35.927 Y96.955 E61.38069
G1 X35.984 Y96.889 E61.39116
G1 X36.050 Y96.832 E61.40162
G1 X36.212 Y96.750 E61.42341
G1 X36.283 Y96.733 E61.43217
G1 X43.325 Y96.724 E62.27721
G1 X45.033 Y94.913 E62.57594
G1 X46.761 Y93.440 E62.84841
G1 X48.738 Y92.080 E63.13636
G1 X48.827 Y92.020 E63.14924
G1 X50.941 Y90.895 E63.43661
G1 X53.053 Y90.052 E63.70949
G1 X55.358 Y89.396 E63.99708
G1 X57.815 Y88.980 E64.29611
G1 X60.101 Y88.857 E64.57083
G1 X60.210 Y88.851 E64.58393
G1 X62.487 Y88.973 E64.85756
G1 X62.603 Y88.980 E64.87151
G1 X64.833 Y89.346 E65.14269
G1 X67.259 Y90.009 E65.44448
G1 X69.370 Y90.852 E65.71725
G1 X71.495 Y91.968 E66.00528
G1 X73.562 Y93.359 E66.30426
G1 X75.294 Y94.835 E66.57733
G1 X76.952 Y96.574 E66.86566
G1 X77.094 Y96.724 E66.89044
G1 X83.696 Y96.724 E67.68268
G1 X84.133 Y96.733 E67.73513
G1 X84.296 Y96.787 E67.75574
G1 X84.366 Y96.830 E67.76560
G1 X84.430 Y96.885 E67.77572
G1 X84.541 Y97.037 E67.79831
G1 X84.572 Y97.114 E67.80827
G1 X84.590 Y97.189 E67.81753
G1 X84.600 Y98.965 E68.03065
G1 X84.591 Y99.158 E68.05383
G1 X84.538 Y99.319 E68.07417
G1 X84.493 Y99.392 E68.08446
G1 X84.434 Y99.460 E68.09527
G1 X84.366 Y99.519 E68.10607
G1 X84.296 Y99.562 E68.11593
G1 X84.206 Y99.599 E68.12761
G1 X84.135 Y99.616 E68.13637
G1 X79.168 Y99.627 E68.73241
G1 X80.351 Y101.964 E69.04673
G1 X81.171 Y104.113 E69.32275
G1 X81.731 Y106.224 E69.58483
G1 X81.757 Y106.321 E69.59688
G1 X82.115 Y108.588 E69.87229
G1 X82.233 Y110.875 E70.14710
G1 X82.115 Y113.161 E70.42178
G1 X81.756 Y115.433 E70.69780
G1 X81.197 Y117.538 E70.95916
G1 X80.393 Y119.675 E71.23315
G1 X79.367 Y121.730 E71.50878
G1 X79.167 Y122.123 E71.56169
G1 X83.808 Y122.123 E72.11861
G1 X84.133 Y122.132 E72.15763
G1 X84.206 Y122.150 E72.16665
G1 X84.296 Y122.187 E72.17833
G1 X84.366 Y122.230 E72.18818
G1 X84.430 Y122.285 E72.19831
G1 X84.541 Y122.437 E72.22090
G1 X84.572 Y122.514 E72.23086
G1 X84.590 Y122.589 E72.24011
G1 X84.600 Y124.366 E72.45336
G1 X84.591 Y124.558 E72.47642
G1 X84.538 Y124.719 E72.49676
G1 X84.493 Y124.792 E72.50705
G1 X84.434 Y124.860 E72.51785
G1 X84.366 Y124.919 E72.52866
G1 X84.296 Y124.962 E72.53852
G1 X84.206 Y124.999 E72.55019
G1 X84.135 Y125.016 E72.55895
G1 X77.094 Y125.026 E73.40387
G1 X75.390 Y126.832 E73.70183
G1 X73.657 Y128.309 E73.97508
G1 X71.680 Y129.669 E74.26303
G1 X71.591 Y129.729 E74.27591
G1 X69.477 Y130.854 E74.56327
G1 X67.365 Y131.697 E74.83616
G1 X65.060 Y132.353 E75.12374
G1 X62.603 Y132.769 E75.42278
G1 X60.209 Y132.899 E75.71048
G1 X57.815 Y132.769 E75.99818
G1 X55.585 Y132.403 E76.26936
G1 X53.159 Y131.740 E76.57116
G1 X51.048 Y130.897 E76.84393
G1 X48.923 Y129.781 E77.13196
G1 X46.856 Y128.390 E77.43093
G1 X45.124 Y126.914 E77.70401
G1 X43.466 Y125.175 E77.99233
G1 X43.325 Y125.026 E78.01695
G1 X36.723 Y125.026 E78.80919
G1 X36.285 Y125.016 E78.86176
G1 X36.125 Y124.962 E78.88203
G1 X36.050 Y124.917 E78.89252
G1 X35.984 Y124.860 E78.90299
G1 X35.927 Y124.794 E78.91345
G1 X35.845 Y124.632 E78.93524
G1 X35.828 Y124.560 E78.94412
G1 X35.819 Y122.782 E79.15748
G1 X35.827 Y122.591 E79.18042
G1 X35.845 Y122.517 E79.18956
G1 X35.927 Y122.355 E79.21135
G1 X35.984 Y122.289 E79.22181
G1 X36.050 Y122.232 E79.23228
G1 X36.212 Y122.150 E79.25407
G1 X36.283 Y122.133 E79.26283
G1 X41.250 Y122.122 E79.85887
G1 X40.067 Y119.785 E80.17319
G1 X39.247 Y117.636 E80.44921
G1 X38.687 Y115.525 E80.71129
G1 X38.661 Y115.428 E80.72334
G1 X38.303 Y113.161 E80.99875
G1 X38.185 Y110.875 E81.27344
G1 X38.303 Y108.588 E81.54824
G1 X38.662 Y106.313 E81.82462
G1 X39.221 Y104.211 E82.08563
G1 X40.025 Y102.074 E82.35962
G1 X41.051 Y100.019 E82.63524
G0 F9000 X41.597 Y100.146
;TYPE:SKIN
G1 F900 X50.057 Y108.605 E84.07087
G0 F9000 X50.169 Y108.152
G1 F900 X41.787 Y99.769 E85.49343
G0 F9000 X41.976 Y99.393
G1 F900 X50.281 Y107.698 E86.90283
G0 F9000 X50.434 Y107.285
G1 F900 X40.416 Y97.267 E88.60294
G0 F9000 X39.851 Y97.268
G1 F900 X41.668 Y99.085 E88.91130
G0 F9000 X41.102 Y99.085
G1 F900 X39.286 Y97.268 E89.21957
G0 F9000 X38.721 Y97.269
G1 F900 X40.537 Y99.085 E89.52775
G0 F9000 X40.981 Y97.266
G1 F900 X50.603 Y106.889 E91.16075
G0 F9000 X50.772 Y106.492
G1 F900 X41.546 Y97.266 E92.72645
G0 F9000 X42.111 Y97.265
G1 F900 X50.941 Y106.095 E94.22495
